X:8
T:Atholl Highlanders
R:Pipe March
C:Trad
M:6/8
L:1/8
K:A
|: e3 ecA | ecA Bcd | e3 ecA | Bcd cBA |
| e3 ecA | ecA Bcd | eae fed | cdB A3 :|
|: Ace Ace | Adf Adf | Ace Ace | Bcd cBA |
| Ace Ace | Adf Adf | eae fed | cdB A3 :|
|: a2 e edc | a2 e edc | a2 e edc | Bcd cBA |
| a2 e edc | a2 e edc | eae fed | cdB A3 :|
|: cAc cAc | dBd dBd | cAc cAc | B=GB B=GB |
| cAc cAc | dBd dBd | eae fed|cdB A3 :|
